X: 13
T:Shepherds' Hey, Fieldtown 2
T:Signpost, Fieldtown
M:4/4
L:1/8
R:Hornpipe
A:Fieldtown
P:A(AB)4
K:Em
P:A
|:   Bc |dcBc d2ef|gagf e2Bc|dcBc d2ef |\
M:3/2 
L:1/8
gagf e6 :|
P:B
|: zd |\
M:2/2 
L:1/8
c2(3ccc BAGB |dc(3Bcd cB(3ABc|BAG2 ABcd |\
M:3/2 
L:1/8
efgf e6 :|
